!!!COM: Palestrina, Giovanni Perluigi da
!!!OPR: Missa In festis Apostolorum (I)
!!!OMD: Gloria
!!!OTL: Benedicimus te
**kern	**kern	**kern	**kern	**kern
*Ibass	*Itenor	*Itenor	*Icalto	*Icant
!Bassus	!Tenor 2	!Tenor 1	!Altus	!Cantus
*clefF4	*clefGv2	*clefGv2	*clefG2	*clefG2
*k[]	*k[]	*k[]	*k[]	*k[]
*D:dor	*D:dor	*D:dor	*D:dor	*D:dor
*M4/2	*M4/2	*M4/2	*M4/2	*M4/2
=13	=13	=13	=13	=13
0r	0r	0r	1A	0r
.	.	.	2c	.
.	.	.	[2d	.
=14	=14	=14	=14	=14
0r	0r	0r	4d]	1e
.	.	.	4c	.
.	.	.	2c	.
.	.	.	2B	2g
.	.	.	4A	[2a
.	.	.	4B	.
=15	=15	=15	=15	=15
0r	0r	0r	4c	4a]
.	.	.	4d	4a
.	.	.	2.e	2g
.	.	.	.	2.f
.	.	.	4d	.
.	.	.	[2d	.
.	.	.	.	4g
=16	=16	=16	=16	=16
0r	1A	0r	2d]	4a
.	.	.	.	4b
.	.	.	2c	1cc
.	2c	.	2e	.
.	[2d	.	[2f	4b
.	.	.	.	4a
=17	=17	=17	=17	=17
1r	4d]	0r	4f]	4b
.	4c	.	4e	4a
.	2c	.	2e	1a
1E	2B	.	1e	.
.	[2e	.	.	2g
=18	=18	=18	=18	=18
2G	4e]	0r	2r	2b
.	4d	.	.	.
2.A	4c	.	2A	2.cc
.	4B	.	.	.
.	2A	.	2c	.
4A	.	.	.	4cc
2G	2B	.	[2e	[2b
=19	=19	=19	=19	=19
1F	2c	0r	4e]	4b]
.	.	.	4e	4a
.	2A	.	2d	1a
1E	2B	.	2.e	.
.	[2e	.	.	2g#
.	.	.	4d	.
=20	=20	=20	=20	=20
2r	4e]	1A	4c	2a
.	4d	.	4d	.
1AA	4c	.	4e	2cc
.	4B	.	4d	.
.	2A	2c	4e	2cc
.	.	.	4f	.
2GG	4B	[2d	2g	2b
.	4G	.	.	.
=21	=21	=21	=21	=21
2D	4A	4d]	2f	2a
.	4B	4d	.	.
2AA	4c	2c	2.e	2.a
.	4d	.	.	.
1E	[1e	1B	.	.
.	.	.	4d	8g#
.	.	.	.	8f#
.	.	.	2B	2g#
=22	=22	=22	=22	=22
[0AA	1e]	[0A	2.c#	[0a
.	.	.	4d	.
.	1c#	.	1e	.
=23	=23	=23	=23	=23
1AA_	[0c#	1A_	[0e	1a_
1AA_	.	1A_	.	1a_
=24	=24	=24	=24	=24
0AA]	0c#]	0A]	0e]	0a]
*-	*-	*-	*-	*-
!!!CDT: 1525/^1526/-1594/2/2
!!!OCY: Italia
!!!AGN: Mass (Paraphrase)
!!!AST: renaissance, vocal
!!!ASW: Gregorian Mass
!!!PWK: Masses, Book Mantuan II
!!!RNB: Cadence finals: A,E
!!!YOR: Le Opere Complete, v. 19, p. 43
!!!YOO: Rome, Italy: Fratelli Scalera
!!!END: 1992//
!!!EED: John Miller
!!!YEC: Copyright 2000, John Miller
!!!YEN: United States of America
!!!YEM: Rights to all derivative electronic formats reserved.
!!!YEM: Refer to licensing agreement for further details.
!!!YEM: This file must be accompanied by the licensing agreement.
!!!YEM: A copy of the licensing agreement may be found at http://www.music-cog.ohio-state.edu/HumdrumDatabases/Palestrina/license.txt
!!!EMD: converted to Humdrum by Bret Aarden
